images/3235011.svg

<?xml version="1.0" encoding="UTF-8"?>
<svg xmlns="http://www.w3.org/2000/svg" xmlns:xlink="http://www.w3.org/1999/xlink" width="300pt" height="300pt" viewBox="0 0 300 300" version="1.1">
<defs>
<g>
<symbol overflow="visible" id="glyph0-0">
<path style="stroke:none;" d="M 0.453125 1.59375 L 0.453125 -6.34375 L 4.953125 -6.34375 L 4.953125 1.59375 Z M 0.953125 1.09375 L 4.453125 1.09375 L 4.453125 -5.84375 L 0.953125 -5.84375 Z M 0.953125 1.09375 "/>
</symbol>
<symbol overflow="visible" id="glyph0-1">
<path style="stroke:none;" d="M 3.546875 -5.953125 C 2.898438 -5.953125 2.382812 -5.710938 2 -5.234375 C 1.625 -4.753906 1.4375 -4.101562 1.4375 -3.28125 C 1.4375 -2.445312 1.625 -1.789062 2 -1.3125 C 2.382812 -0.832031 2.898438 -0.59375 3.546875 -0.59375 C 4.191406 -0.59375 4.703125 -0.832031 5.078125 -1.3125 C 5.453125 -1.789062 5.640625 -2.445312 5.640625 -3.28125 C 5.640625 -4.101562 5.453125 -4.753906 5.078125 -5.234375 C 4.703125 -5.710938 4.191406 -5.953125 3.546875 -5.953125 Z M 3.546875 -6.6875 C 4.460938 -6.6875 5.195312 -6.375 5.75 -5.75 C 6.300781 -5.132812 6.578125 -4.3125 6.578125 -3.28125 C 6.578125 -2.238281 6.300781 -1.410156 5.75 -0.796875 C 5.195312 -0.179688 4.460938 0.125 3.546875 0.125 C 2.617188 0.125 1.878906 -0.179688 1.328125 -0.796875 C 0.773438 -1.410156 0.5 -2.238281 0.5 -3.28125 C 0.5 -4.3125 0.773438 -5.132812 1.328125 -5.75 C 1.878906 -6.375 2.617188 -6.6875 3.546875 -6.6875 Z M 3.546875 -6.6875 "/>
</symbol>
<symbol overflow="visible" id="glyph0-2">
<path style="stroke:none;" d="M 0.890625 -6.5625 L 2.078125 -6.5625 L 4.984375 -1.078125 L 4.984375 -6.5625 L 5.84375 -6.5625 L 5.84375 0 L 4.65625 0 L 1.75 -5.484375 L 1.75 0 L 0.890625 0 Z M 0.890625 -6.5625 "/>
</symbol>
<symbol overflow="visible" id="glyph0-3">
<path style="stroke:none;" d="M 0.890625 -6.5625 L 1.765625 -6.5625 L 1.765625 -3.875 L 5 -3.875 L 5 -6.5625 L 5.890625 -6.5625 L 5.890625 0 L 5 0 L 5 -3.125 L 1.765625 -3.125 L 1.765625 0 L 0.890625 0 Z M 0.890625 -6.5625 "/>
</symbol>
</g>
</defs>
<g id="surface52553">
<rect x="0" y="0" width="300" height="300" style="fill:rgb(100%,100%,100%);fill-opacity:1;stroke:none;"/>
<path style="fill:none;stroke-width:1.2;stroke-linecap:butt;stroke-linejoin:miter;stroke:rgb(0%,0%,0%);stroke-opacity:1;stroke-miterlimit:10;" d="M 264.75 134.265625 L 257.496094 125.03125 "/>
<path style="fill:none;stroke-width:1.2;stroke-linecap:butt;stroke-linejoin:miter;stroke:rgb(100%,0%,0%);stroke-opacity:1;stroke-miterlimit:10;" d="M 257.496094 125.03125 L 250.242188 115.796875 "/>
<path style="fill:none;stroke-width:1.2;stroke-linecap:butt;stroke-linejoin:miter;stroke:rgb(100%,0%,0%);stroke-opacity:1;stroke-miterlimit:10;" d="M 250.242188 115.796875 L 238.621094 117.460938 "/>
<path style="fill:none;stroke-width:1.2;stroke-linecap:butt;stroke-linejoin:miter;stroke:rgb(0%,0%,0%);stroke-opacity:1;stroke-miterlimit:10;" d="M 238.621094 117.460938 L 226.996094 119.128906 "/>
<path style=" stroke:none;fill-rule:nonzero;fill:rgb(100%,100%,100%);fill-opacity:1;" d="M 246.242188 110.296875 L 254.242188 110.296875 L 254.242188 121.296875 L 246.242188 121.296875 Z M 246.242188 110.296875 "/>
<g style="fill:rgb(100%,0%,0%);fill-opacity:1;">
  <use xlink:href="#glyph0-1" x="246.242188" y="118.959961"/>
</g>
<path style="fill:none;stroke-width:1.2;stroke-linecap:butt;stroke-linejoin:miter;stroke:rgb(0%,0%,0%);stroke-opacity:1;stroke-miterlimit:10;" d="M 226.996094 119.128906 L 218.253906 140.925781 "/>
<path style="fill:none;stroke-width:1.2;stroke-linecap:butt;stroke-linejoin:miter;stroke:rgb(0%,0%,0%);stroke-opacity:1;stroke-miterlimit:10;" d="M 220.992188 119.25 L 214 136.6875 "/>
<path style="fill:none;stroke-width:1.2;stroke-linecap:butt;stroke-linejoin:miter;stroke:rgb(0%,0%,0%);stroke-opacity:1;stroke-miterlimit:10;" d="M 212.488281 100.660156 L 226.996094 119.128906 "/>
<path style="fill:none;stroke-width:1.2;stroke-linecap:butt;stroke-linejoin:miter;stroke:rgb(0%,0%,0%);stroke-opacity:1;stroke-miterlimit:10;" d="M 218.253906 140.925781 L 195.007812 144.253906 "/>
<path style="fill:none;stroke-width:1.2;stroke-linecap:butt;stroke-linejoin:miter;stroke:rgb(0%,0%,0%);stroke-opacity:1;stroke-miterlimit:10;" d="M 195.007812 144.253906 L 180.5 125.785156 "/>
<path style="fill:none;stroke-width:1.2;stroke-linecap:butt;stroke-linejoin:miter;stroke:rgb(0%,0%,0%);stroke-opacity:1;stroke-miterlimit:10;" d="M 197.902344 138.992188 L 186.296875 124.21875 "/>
<path style="fill:none;stroke-width:1.2;stroke-linecap:butt;stroke-linejoin:miter;stroke:rgb(0%,0%,0%);stroke-opacity:1;stroke-miterlimit:10;" d="M 195.007812 144.253906 L 190.636719 155.152344 "/>
<path style="fill:none;stroke-width:1.2;stroke-linecap:butt;stroke-linejoin:miter;stroke:rgb(100%,0%,0%);stroke-opacity:1;stroke-miterlimit:10;" d="M 190.636719 155.152344 L 186.265625 166.050781 "/>
<path style="fill:none;stroke-width:1.2;stroke-linecap:butt;stroke-linejoin:miter;stroke:rgb(0%,0%,0%);stroke-opacity:1;stroke-miterlimit:10;" d="M 180.5 125.785156 L 189.242188 103.988281 "/>
<path style="fill:none;stroke-width:1.2;stroke-linecap:butt;stroke-linejoin:miter;stroke:rgb(0%,0%,0%);stroke-opacity:1;stroke-miterlimit:10;" d="M 180.5 125.785156 L 157.253906 129.113281 "/>
<path style="fill:none;stroke-width:1.2;stroke-linecap:butt;stroke-linejoin:miter;stroke:rgb(0%,0%,0%);stroke-opacity:1;stroke-miterlimit:10;" d="M 189.242188 103.988281 L 212.488281 100.660156 "/>
<path style="fill:none;stroke-width:1.2;stroke-linecap:butt;stroke-linejoin:miter;stroke:rgb(0%,0%,0%);stroke-opacity:1;stroke-miterlimit:10;" d="M 192.347656 109.125 L 210.949219 106.460938 "/>
<path style="fill:none;stroke-width:1.2;stroke-linecap:butt;stroke-linejoin:miter;stroke:rgb(0%,0%,0%);stroke-opacity:1;stroke-miterlimit:10;" d="M 157.253906 129.113281 L 152.882812 140.011719 "/>
<path style="fill:none;stroke-width:1.2;stroke-linecap:butt;stroke-linejoin:miter;stroke:rgb(0%,0%,100%);stroke-opacity:1;stroke-miterlimit:10;" d="M 152.882812 140.011719 L 148.511719 150.910156 "/>
<path style="fill:none;stroke-width:1.2;stroke-linecap:butt;stroke-linejoin:miter;stroke:rgb(0%,0%,100%);stroke-opacity:1;stroke-miterlimit:10;" d="M 148.511719 150.910156 L 136.890625 152.574219 "/>
<path style="fill:none;stroke-width:1.2;stroke-linecap:butt;stroke-linejoin:miter;stroke:rgb(0%,0%,0%);stroke-opacity:1;stroke-miterlimit:10;" d="M 136.890625 152.574219 L 125.265625 154.242188 "/>
<path style=" stroke:none;fill-rule:nonzero;fill:rgb(100%,100%,100%);fill-opacity:1;" d="M 141.511719 145.410156 L 155.511719 145.410156 L 155.511719 156.410156 L 141.511719 156.410156 Z M 141.511719 145.410156 "/>
<g style="fill:rgb(0%,0%,100%);fill-opacity:1;">
  <use xlink:href="#glyph0-2" x="141.511719" y="154.073242"/>
  <use xlink:href="#glyph0-3" x="148.489258" y="154.073242"/>
</g>
<path style="fill:none;stroke-width:1.2;stroke-linecap:butt;stroke-linejoin:miter;stroke:rgb(0%,0%,0%);stroke-opacity:1;stroke-miterlimit:10;" d="M 125.265625 154.242188 L 118.011719 145.007812 "/>
<path style="fill:none;stroke-width:1.2;stroke-linecap:butt;stroke-linejoin:miter;stroke:rgb(0%,0%,100%);stroke-opacity:1;stroke-miterlimit:10;" d="M 118.011719 145.007812 L 110.757812 135.773438 "/>
<path style="fill:none;stroke-width:1.2;stroke-linecap:butt;stroke-linejoin:miter;stroke:rgb(0%,0%,0%);stroke-opacity:1;stroke-miterlimit:10;" d="M 119.46875 155.808594 L 113.667969 148.417969 "/>
<path style="fill:none;stroke-width:1.2;stroke-linecap:butt;stroke-linejoin:miter;stroke:rgb(0%,0%,100%);stroke-opacity:1;stroke-miterlimit:10;" d="M 113.667969 148.417969 L 107.863281 141.03125 "/>
<path style="fill:none;stroke-width:1.2;stroke-linecap:butt;stroke-linejoin:miter;stroke:rgb(0%,0%,0%);stroke-opacity:1;stroke-miterlimit:10;" d="M 116.523438 176.039062 L 125.265625 154.242188 "/>
<path style="fill:none;stroke-width:1.2;stroke-linecap:butt;stroke-linejoin:miter;stroke:rgb(0%,0%,100%);stroke-opacity:1;stroke-miterlimit:10;" d="M 110.757812 135.773438 L 99.132812 137.4375 "/>
<path style="fill:none;stroke-width:1.2;stroke-linecap:butt;stroke-linejoin:miter;stroke:rgb(0%,0%,0%);stroke-opacity:1;stroke-miterlimit:10;" d="M 99.132812 137.4375 L 87.511719 139.101562 "/>
<path style=" stroke:none;fill-rule:nonzero;fill:rgb(100%,100%,100%);fill-opacity:1;" d="M 107.757812 130.273438 L 114.757812 130.273438 L 114.757812 141.273438 L 107.757812 141.273438 Z M 107.757812 130.273438 "/>
<g style="fill:rgb(0%,0%,100%);fill-opacity:1;">
  <use xlink:href="#glyph0-2" x="107.757812" y="138.936523"/>
</g>
<path style="fill:none;stroke-width:1.2;stroke-linecap:butt;stroke-linejoin:miter;stroke:rgb(0%,0%,0%);stroke-opacity:1;stroke-miterlimit:10;" d="M 87.511719 139.101562 L 83.140625 150 "/>
<path style="fill:none;stroke-width:1.2;stroke-linecap:butt;stroke-linejoin:miter;stroke:rgb(0%,0%,100%);stroke-opacity:1;stroke-miterlimit:10;" d="M 83.140625 150 L 78.769531 160.898438 "/>
<path style="fill:none;stroke-width:1.2;stroke-linecap:butt;stroke-linejoin:miter;stroke:rgb(0%,0%,0%);stroke-opacity:1;stroke-miterlimit:10;" d="M 91.765625 143.335938 L 88.269531 152.054688 "/>
<path style="fill:none;stroke-width:1.2;stroke-linecap:butt;stroke-linejoin:miter;stroke:rgb(0%,0%,100%);stroke-opacity:1;stroke-miterlimit:10;" d="M 88.269531 152.054688 L 84.773438 160.777344 "/>
<path style="fill:none;stroke-width:1.2;stroke-linecap:butt;stroke-linejoin:miter;stroke:rgb(0%,0%,0%);stroke-opacity:1;stroke-miterlimit:10;" d="M 87.511719 139.101562 L 73.003906 120.632812 "/>
<path style="fill:none;stroke-width:1.2;stroke-linecap:butt;stroke-linejoin:miter;stroke:rgb(0%,0%,100%);stroke-opacity:1;stroke-miterlimit:10;" d="M 78.769531 160.898438 L 86.023438 170.132812 "/>
<path style="fill:none;stroke-width:1.2;stroke-linecap:butt;stroke-linejoin:miter;stroke:rgb(0%,0%,0%);stroke-opacity:1;stroke-miterlimit:10;" d="M 86.023438 170.132812 L 93.277344 179.367188 "/>
<path style=" stroke:none;fill-rule:nonzero;fill:rgb(100%,100%,100%);fill-opacity:1;" d="M 75.769531 155.398438 L 82.769531 155.398438 L 82.769531 166.398438 L 75.769531 166.398438 Z M 75.769531 155.398438 "/>
<g style="fill:rgb(0%,0%,100%);fill-opacity:1;">
  <use xlink:href="#glyph0-2" x="75.769531" y="164.061523"/>
</g>
<path style="fill:none;stroke-width:1.2;stroke-linecap:butt;stroke-linejoin:miter;stroke:rgb(0%,0%,0%);stroke-opacity:1;stroke-miterlimit:10;" d="M 93.277344 179.367188 L 84.535156 201.164062 "/>
<path style="fill:none;stroke-width:1.2;stroke-linecap:butt;stroke-linejoin:miter;stroke:rgb(0%,0%,0%);stroke-opacity:1;stroke-miterlimit:10;" d="M 97.53125 183.601562 L 90.539062 201.042969 "/>
<path style="fill:none;stroke-width:1.2;stroke-linecap:butt;stroke-linejoin:miter;stroke:rgb(0%,0%,0%);stroke-opacity:1;stroke-miterlimit:10;" d="M 116.523438 176.039062 L 93.277344 179.367188 "/>
<path style="fill:none;stroke-width:1.2;stroke-linecap:butt;stroke-linejoin:miter;stroke:rgb(0%,0%,0%);stroke-opacity:1;stroke-miterlimit:10;" d="M 84.535156 201.164062 L 99.042969 219.632812 "/>
<path style="fill:none;stroke-width:1.2;stroke-linecap:butt;stroke-linejoin:miter;stroke:rgb(0%,0%,0%);stroke-opacity:1;stroke-miterlimit:10;" d="M 99.042969 219.632812 L 122.289062 216.304688 "/>
<path style="fill:none;stroke-width:1.2;stroke-linecap:butt;stroke-linejoin:miter;stroke:rgb(0%,0%,0%);stroke-opacity:1;stroke-miterlimit:10;" d="M 100.585938 213.828125 L 119.183594 211.167969 "/>
<path style="fill:none;stroke-width:1.2;stroke-linecap:butt;stroke-linejoin:miter;stroke:rgb(0%,0%,0%);stroke-opacity:1;stroke-miterlimit:10;" d="M 122.289062 216.304688 L 131.03125 194.507812 "/>
<path style="fill:none;stroke-width:1.2;stroke-linecap:butt;stroke-linejoin:miter;stroke:rgb(0%,0%,0%);stroke-opacity:1;stroke-miterlimit:10;" d="M 131.03125 194.507812 L 116.523438 176.039062 "/>
<path style="fill:none;stroke-width:1.2;stroke-linecap:butt;stroke-linejoin:miter;stroke:rgb(0%,0%,0%);stroke-opacity:1;stroke-miterlimit:10;" d="M 125.234375 196.074219 L 113.628906 181.296875 "/>
<path style="fill:none;stroke-width:1.2;stroke-linecap:butt;stroke-linejoin:miter;stroke:rgb(0%,0%,0%);stroke-opacity:1;stroke-miterlimit:10;" d="M 73.003906 120.632812 L 81.746094 98.835938 "/>
<path style="fill:none;stroke-width:1.2;stroke-linecap:butt;stroke-linejoin:miter;stroke:rgb(0%,0%,0%);stroke-opacity:1;stroke-miterlimit:10;" d="M 68.75 116.398438 L 75.742188 98.957031 "/>
<path style="fill:none;stroke-width:1.2;stroke-linecap:butt;stroke-linejoin:miter;stroke:rgb(0%,0%,0%);stroke-opacity:1;stroke-miterlimit:10;" d="M 49.757812 123.960938 L 73.003906 120.632812 "/>
<path style="fill:none;stroke-width:1.2;stroke-linecap:butt;stroke-linejoin:miter;stroke:rgb(0%,0%,0%);stroke-opacity:1;stroke-miterlimit:10;" d="M 81.746094 98.835938 L 74.492188 89.601562 "/>
<path style="fill:none;stroke-width:1.2;stroke-linecap:butt;stroke-linejoin:miter;stroke:rgb(0%,0%,100%);stroke-opacity:1;stroke-miterlimit:10;" d="M 74.492188 89.601562 L 67.238281 80.367188 "/>
<path style="fill:none;stroke-width:1.2;stroke-linecap:butt;stroke-linejoin:miter;stroke:rgb(0%,0%,100%);stroke-opacity:1;stroke-miterlimit:10;" d="M 67.238281 80.367188 L 55.613281 82.03125 "/>
<path style="fill:none;stroke-width:1.2;stroke-linecap:butt;stroke-linejoin:miter;stroke:rgb(0%,0%,0%);stroke-opacity:1;stroke-miterlimit:10;" d="M 55.613281 82.03125 L 43.992188 83.695312 "/>
<path style="fill:none;stroke-width:1.2;stroke-linecap:butt;stroke-linejoin:miter;stroke:rgb(0%,0%,100%);stroke-opacity:1;stroke-miterlimit:10;" d="M 65.695312 86.171875 L 56.398438 87.5 "/>
<path style="fill:none;stroke-width:1.2;stroke-linecap:butt;stroke-linejoin:miter;stroke:rgb(0%,0%,0%);stroke-opacity:1;stroke-miterlimit:10;" d="M 56.398438 87.5 L 47.097656 88.832031 "/>
<path style=" stroke:none;fill-rule:nonzero;fill:rgb(100%,100%,100%);fill-opacity:1;" d="M 64.238281 74.867188 L 71.238281 74.867188 L 71.238281 85.867188 L 64.238281 85.867188 Z M 64.238281 74.867188 "/>
<g style="fill:rgb(0%,0%,100%);fill-opacity:1;">
  <use xlink:href="#glyph0-2" x="64.238281" y="83.530273"/>
</g>
<path style="fill:none;stroke-width:1.2;stroke-linecap:butt;stroke-linejoin:miter;stroke:rgb(0%,0%,0%);stroke-opacity:1;stroke-miterlimit:10;" d="M 43.992188 83.695312 L 35.25 105.492188 "/>
<path style="fill:none;stroke-width:1.2;stroke-linecap:butt;stroke-linejoin:miter;stroke:rgb(0%,0%,0%);stroke-opacity:1;stroke-miterlimit:10;" d="M 35.25 105.492188 L 49.757812 123.960938 "/>
<path style="fill:none;stroke-width:1.2;stroke-linecap:butt;stroke-linejoin:miter;stroke:rgb(0%,0%,0%);stroke-opacity:1;stroke-miterlimit:10;" d="M 41.046875 103.925781 L 52.652344 118.703125 "/>
<path style="fill:none;stroke-width:1.2;stroke-linecap:butt;stroke-linejoin:miter;stroke:rgb(100%,0%,0%);stroke-opacity:1;stroke-miterlimit:10;" d="M 186.265625 166.050781 L 193.519531 175.285156 "/>
<path style="fill:none;stroke-width:1.2;stroke-linecap:butt;stroke-linejoin:miter;stroke:rgb(0%,0%,0%);stroke-opacity:1;stroke-miterlimit:10;" d="M 193.519531 175.285156 L 200.773438 184.519531 "/>
<path style=" stroke:none;fill-rule:nonzero;fill:rgb(100%,100%,100%);fill-opacity:1;" d="M 182.265625 160.550781 L 190.265625 160.550781 L 190.265625 171.550781 L 182.265625 171.550781 Z M 182.265625 160.550781 "/>
<g style="fill:rgb(100%,0%,0%);fill-opacity:1;">
  <use xlink:href="#glyph0-1" x="182.265625" y="169.213867"/>
</g>
</g>
</svg>

<svg xmlns="http://www.w3.org/2000/svg" xmlns:xlink="http://www.w3.org/1999/xlink" width="300pt" height="300pt" viewBox="0 0 300 300"><defs><symbol overflow="visible"><path d="M.453 1.594v-7.938h4.5v7.938zm.5-.5h3.5v-6.938h-3.5zm0 0"/></symbol><symbol overflow="visible" id="a"><path d="M3.547-5.953c-.65 0-1.164.242-1.547.72-.375.48-.563 1.13-.563 1.952 0 .835.188 1.49.563 1.967.383.48.898.72 1.547.72.644 0 1.156-.24 1.53-.72.376-.476.564-1.132.564-1.968 0-.822-.187-1.474-.562-1.954-.375-.477-.887-.72-1.53-.72zm0-.734c.914 0 1.648.312 2.203.937.55.617.828 1.438.828 2.47 0 1.042-.277 1.87-.828 2.483-.555.617-1.29.922-2.203.922-.93 0-1.668-.305-2.22-.922C.774-1.41.5-2.237.5-3.28c0-1.033.273-1.853.828-2.47.55-.625 1.29-.938 2.22-.938zm0 0"/></symbol><symbol overflow="visible" id="b"><path d="M.89-6.563H2.08l2.906 5.485v-5.484h.86V0H4.656L1.75-5.484V0H.89zm0 0"/></symbol><symbol overflow="visible" id="c"><path d="M.89-6.563h.876v2.688H5v-2.688h.89V0H5v-3.125H1.766V0H.89zm0 0"/></symbol></defs><g><path fill="#fff" d="M0 0h300v300H0z"/><path d="M264.75 134.266l-7.254-9.235" stroke-width="1.2" stroke="#000" stroke-miterlimit="10" fill="none"/><path d="M257.496 125.03l-7.254-9.233M250.242 115.797l-11.62 1.664" stroke-width="1.2" stroke="#f00" stroke-miterlimit="10" fill="none"/><path d="M238.62 117.46l-11.624 1.67" stroke-width="1.2" stroke="#000" stroke-miterlimit="10" fill="none"/><path d="M246.242 110.297h8v11h-8zm0 0" fill="#fff"/><use xlink:href="#a" x="246.242" y="118.96" fill="#f00"/><path d="M226.996 119.13l-8.742 21.796M220.992 119.25L214 136.688M212.488 100.66l14.508 18.47M218.254 140.926l-23.246 3.328M195.008 144.254l-14.508-18.47M197.902 138.992l-11.605-14.773M195.008 144.254l-4.37 10.898" stroke-width="1.2" stroke="#000" stroke-miterlimit="10" fill="none"/><path d="M190.637 155.152l-4.37 10.9" stroke-width="1.2" stroke="#f00" stroke-miterlimit="10" fill="none"/><path d="M180.5 125.785l8.742-21.797M180.5 125.785l-23.246 3.328M189.242 103.988l23.246-3.328M192.348 109.125l18.6-2.664M157.254 129.113l-4.37 10.9" stroke-width="1.2" stroke="#000" stroke-miterlimit="10" fill="none"/><path d="M152.883 140.012l-4.37 10.898M148.512 150.91l-11.62 1.664" stroke-width="1.2" stroke="#00f" stroke-miterlimit="10" fill="none"/><path d="M136.89 152.574l-11.624 1.668" stroke-width="1.2" stroke="#000" stroke-miterlimit="10" fill="none"/><path d="M141.512 145.41h14v11h-14zm0 0" fill="#fff"/><g fill="#00f"><use xlink:href="#b" x="141.512" y="154.073"/><use xlink:href="#c" x="148.489" y="154.073"/></g><path d="M125.266 154.242l-7.254-9.234" stroke-width="1.2" stroke="#000" stroke-miterlimit="10" fill="none"/><path d="M118.012 145.008l-7.254-9.235" stroke-width="1.2" stroke="#00f" stroke-miterlimit="10" fill="none"/><path d="M119.47 155.81l-5.802-7.392" stroke-width="1.2" stroke="#000" stroke-miterlimit="10" fill="none"/><path d="M113.668 148.418l-5.805-7.387" stroke-width="1.2" stroke="#00f" stroke-miterlimit="10" fill="none"/><path d="M116.523 176.04l8.743-21.798" stroke-width="1.2" stroke="#000" stroke-miterlimit="10" fill="none"/><path d="M110.758 135.773l-11.625 1.665" stroke-width="1.2" stroke="#00f" stroke-miterlimit="10" fill="none"/><path d="M99.133 137.438l-11.62 1.664" stroke-width="1.2" stroke="#000" stroke-miterlimit="10" fill="none"/><path d="M107.758 130.273h7v11h-7zm0 0" fill="#fff"/><use xlink:href="#b" x="107.758" y="138.937" fill="#00f"/><path d="M87.512 139.102L83.142 150" stroke-width="1.2" stroke="#000" stroke-miterlimit="10" fill="none"/><path d="M83.14 150l-4.37 10.898" stroke-width="1.2" stroke="#00f" stroke-miterlimit="10" fill="none"/><path d="M91.766 143.336l-3.496 8.72" stroke-width="1.2" stroke="#000" stroke-miterlimit="10" fill="none"/><path d="M88.27 152.055l-3.497 8.722" stroke-width="1.2" stroke="#00f" stroke-miterlimit="10" fill="none"/><path d="M87.512 139.102l-14.508-18.47" stroke-width="1.2" stroke="#000" stroke-miterlimit="10" fill="none"/><path d="M78.77 160.898l7.253 9.235" stroke-width="1.2" stroke="#00f" stroke-miterlimit="10" fill="none"/><path d="M86.023 170.133l7.254 9.234" stroke-width="1.2" stroke="#000" stroke-miterlimit="10" fill="none"/><path d="M75.77 155.398h7v11h-7zm0 0" fill="#fff"/><use xlink:href="#b" x="75.77" y="164.062" fill="#00f"/><path d="M93.277 179.367l-8.742 21.797M97.53 183.602l-6.99 17.44M116.523 176.04l-23.246 3.327M84.535 201.164l14.508 18.47M99.043 219.633l23.246-3.328M100.586 213.828l18.598-2.66M122.29 216.305l8.74-21.797M131.03 194.508l-14.507-18.47M125.234 196.074l-11.605-14.777M73.004 120.633l8.742-21.797M68.75 116.398l6.992-17.44M49.758 123.96l23.246-3.327M81.746 98.836l-7.254-9.234" stroke-width="1.2" stroke="#000" stroke-miterlimit="10" fill="none"/><path d="M74.492 89.602l-7.254-9.235M67.238 80.367L55.613 82.03" stroke-width="1.2" stroke="#00f" stroke-miterlimit="10" fill="none"/><path d="M55.613 82.03l-11.62 1.665" stroke-width="1.2" stroke="#000" stroke-miterlimit="10" fill="none"/><path d="M65.695 86.172L56.398 87.5" stroke-width="1.2" stroke="#00f" stroke-miterlimit="10" fill="none"/><path d="M56.398 87.5l-9.3 1.332" stroke-width="1.2" stroke="#000" stroke-miterlimit="10" fill="none"/><path d="M64.238 74.867h7v11h-7zm0 0" fill="#fff"/><use xlink:href="#b" x="64.238" y="83.53" fill="#00f"/><path d="M43.992 83.695l-8.742 21.797M35.25 105.492l14.508 18.47M41.047 103.926l11.605 14.777" stroke-width="1.2" stroke="#000" stroke-miterlimit="10" fill="none"/><path d="M186.266 166.05l7.254 9.235" stroke-width="1.2" stroke="#f00" stroke-miterlimit="10" fill="none"/><path d="M193.52 175.285l7.253 9.235" stroke-width="1.2" stroke="#000" stroke-miterlimit="10" fill="none"/><path d="M182.266 160.55h8v11h-8zm0 0" fill="#fff"/><use xlink:href="#a" x="182.266" y="169.214" fill="#f00"/></g></svg>
